; generated by Slic3r 1.37.1-prusa3d-win64 on 2017-10-30 at 18:26:06

; 

; external perimeters extrusion width = 0.60mm
; perimeters extrusion width = 0.43mm
; infill extrusion width = 0.70mm
; solid infill extrusion width = 0.70mm
; top infill extrusion width = 0.43mm
; first layer extrusion width = 0.42mm

M107
M115 U3.0.12 ; tell printer latest fw version
M83  ; extruder relative mode
M104 S220 ; set extruder temp
M140 S70 ; set bed temp
M190 S70 ; wait for bed temp
M109 S220 ; wait for extruder temp
G28 W ; home all without mesh bed level
G80 ; mesh bed leveling
G1 Y-3.0 F1000.0 ; go outside pritn area
G1 X60.0 E9.0  F1000.0 ; intro line
G1 X100.0 E12.5  F1000.0 ; intro line
; Filament gcode

G21 ; set units to millimeters
G90 ; use absolute coordinates
M83 ; use relative distances for extrusion
G1 E-0.80000 F2100.00000
G1 Z0.200 F7200.000
G1 X78.716 Y57.050 F7200.000
G1 E0.80000 F2100.00000
M204 S1000
G1 F2100
G1 X79.849 Y56.378 E0.04132
G1 X80.786 Y55.998 E0.03168
G1 X81.752 Y55.759 E0.03120
G1 X83.029 Y55.634 E0.04025
G1 X166.914 Y55.633 E2.63015
G1 X168.110 Y55.730 E0.03764
G1 X169.386 Y56.061 E0.04132
G1 X170.295 Y56.446 E0.03096
G1 X171.157 Y56.965 E0.03156
G1 X172.169 Y57.804 E0.04120
G1 X172.958 Y58.728 E0.03812
G1 X173.624 Y59.853 E0.04096
G1 X174.001 Y60.782 E0.03144
G1 X174.240 Y61.744 E0.03108
G1 X174.363 Y62.957 E0.03822
G1 X174.366 Y146.967 E2.63409
G1 X174.268 Y148.118 E0.03621
G1 X173.940 Y149.382 E0.04096
G1 X173.554 Y150.295 E0.03108
G1 X173.041 Y151.148 E0.03120
G1 X172.252 Y152.111 E0.03905
G1 X171.281 Y152.952 E0.04026
G1 X170.140 Y153.627 E0.04156
G1 X169.214 Y154.002 E0.03132
G1 X168.237 Y154.244 E0.03156
G1 X166.914 Y154.367 E0.04168
G1 X83.033 Y154.366 E2.63003
G1 X81.882 Y154.268 E0.03621
G1 X80.618 Y153.940 E0.04096
G1 X79.705 Y153.554 E0.03108
G1 X78.852 Y153.041 E0.03120
G1 X77.888 Y152.251 E0.03906
G1 X77.048 Y151.281 E0.04025
G1 X76.373 Y150.140 E0.04155
G1 X75.998 Y149.214 E0.03132
G1 X75.756 Y148.237 E0.03156
G1 X75.633 Y146.914 E0.04168
G1 X75.634 Y63.033 E2.63003
G1 X75.732 Y61.882 E0.03621
G1 X76.060 Y60.618 E0.04096
G1 X76.446 Y59.705 E0.03108
G1 X76.959 Y58.852 E0.03120
G1 X77.748 Y57.889 E0.03906
G1 X78.671 Y57.090 E0.03825
G1 F5760
G1 X79.849 Y56.378 E-0.47691
G1 F5760
G1 X80.607 Y56.071 E-0.28309
G1 E-0.04000 F2100.00000
G1 X82.089 Y142.833 F7200.000
G1 E0.80000 F2100.00000
G1 F840
G1 X82.475 Y142.845 E0.01210
G1 X82.838 Y142.924 E0.01167
G1 X83.181 Y143.061 E0.01158
G1 X83.495 Y143.255 E0.01158
G1 X83.772 Y143.499 E0.01158
G1 X83.992 Y143.771 E0.01096
G1 X84.183 Y144.106 E0.01210
G1 X84.307 Y144.457 E0.01167
G1 X84.370 Y144.820 E0.01158
G1 X84.370 Y145.190 E0.01158
G1 X84.307 Y145.553 E0.01158
G1 X84.191 Y145.883 E0.01096
G1 X84.006 Y146.222 E0.01210
G1 X83.772 Y146.511 E0.01167
G1 X83.495 Y146.755 E0.01158
G1 X83.181 Y146.949 E0.01158
G1 X82.838 Y147.086 E0.01158
G1 X82.477 Y147.164 E0.01158
G1 X82.109 Y147.180 E0.01158
G1 X81.742 Y147.133 E0.01158
G1 X81.389 Y147.025 E0.01158
G1 X81.060 Y146.859 E0.01158
G1 X80.779 Y146.651 E0.01096
G1 X80.509 Y146.375 E0.01210
G1 X80.301 Y146.067 E0.01167
G1 X80.149 Y145.730 E0.01158
G1 X80.056 Y145.373 E0.01158
G1 X80.024 Y145.005 E0.01158
G1 X80.056 Y144.637 E0.01158
G1 X80.149 Y144.280 E0.01158
G1 X80.301 Y143.943 E0.01158
G1 X80.507 Y143.638 E0.01158
G1 X80.763 Y143.371 E0.01158
G1 X81.060 Y143.151 E0.01158
G1 X81.389 Y142.985 E0.01158
G1 X81.742 Y142.877 E0.01158
G1 X82.030 Y142.840 E0.00907
G1 X82.077 Y143.214 F7200.000
G1 F840
G1 X82.428 Y143.221 E0.01101
G1 X82.728 Y143.286 E0.00960
G1 X83.011 Y143.399 E0.00956
G1 X83.270 Y143.559 E0.00956
G1 X83.499 Y143.761 E0.00956
G1 X83.680 Y143.984 E0.00900
G1 X83.839 Y144.263 E0.01008
G1 X83.941 Y144.552 E0.00960
G1 X83.993 Y144.853 E0.00956
G1 X83.993 Y145.158 E0.00956
G1 X83.941 Y145.458 E0.00956
G1 X83.846 Y145.729 E0.00900
G1 X83.692 Y146.011 E0.01008
G1 X83.499 Y146.249 E0.00960
G1 X83.270 Y146.451 E0.00956
G1 X83.011 Y146.611 E0.00956
G1 X82.728 Y146.724 E0.00956
G1 X82.429 Y146.789 E0.00956
G1 X82.125 Y146.802 E0.00956
G1 X81.822 Y146.763 E0.00956
G1 X81.531 Y146.674 E0.00956
G1 X81.258 Y146.536 E0.00956
G1 X81.027 Y146.366 E0.00900
G1 X80.802 Y146.136 E0.01008
G1 X80.631 Y145.882 E0.00960
G1 X80.505 Y145.604 E0.00956
G1 X80.429 Y145.309 E0.00956
G1 X80.403 Y145.005 E0.00956
G1 X80.429 Y144.701 E0.00956
G1 X80.505 Y144.406 E0.00956
G1 X80.631 Y144.128 E0.00956
G1 X80.802 Y143.875 E0.00956
G1 X81.013 Y143.655 E0.00956
G1 X81.258 Y143.474 E0.00956
G1 X81.531 Y143.336 E0.00956
G1 X81.822 Y143.247 E0.00956
G1 X82.018 Y143.222 E0.00619
G1 X82.234 Y142.900 F7200.000
G1 F5760
G1 X82.428 Y143.221 E-0.14218
G1 F5760
G1 X82.728 Y143.286 E-0.10601
G1 F5760
G1 X83.011 Y143.399 E-0.10564
G1 F5760
G1 X83.270 Y143.559 E-0.10564
G1 F5760
G1 X83.499 Y143.761 E-0.10564
G1 F5760
G1 X83.680 Y143.984 E-0.09945
G1 F5760
G1 X83.816 Y144.223 E-0.09545
G1 E-0.04000 F2100.00000
G1 X159.347 Y136.660 F7200.000
G1 E0.80000 F2100.00000
G1 F840
G1 X159.227 Y136.328 E0.01109
G1 X159.207 Y136.091 E0.00746
G1 X159.263 Y135.756 E0.01066
G1 X159.446 Y135.423 E0.01189
G1 X159.708 Y135.192 E0.01097
G1 X159.919 Y135.086 E0.00739
G1 X160.251 Y135.013 E0.01066
G1 X160.627 Y135.059 E0.01189
G1 X160.940 Y135.216 E0.01097
G1 X161.116 Y135.372 E0.00739
G1 X161.308 Y135.653 E0.01066
G1 X161.406 Y136.019 E0.01189
G1 X161.376 Y136.368 E0.01097
G1 X161.297 Y136.591 E0.00742
G1 X161.103 Y136.879 E0.01090
G1 X160.803 Y137.100 E0.01170
G1 X160.446 Y137.210 E0.01170
G1 X160.073 Y137.194 E0.01170
G1 X159.751 Y137.064 E0.01090
G1 X159.562 Y136.924 E0.00739
G1 X159.385 Y136.707 E0.00877
G1 X159.598 Y136.246 F7200.000
G1 F840
G1 X159.587 Y136.106 E0.00440
G1 X159.624 Y135.881 E0.00716
G1 X159.744 Y135.663 E0.00781
G1 X159.921 Y135.507 E0.00738
G1 X160.046 Y135.444 E0.00438
G1 X160.269 Y135.395 E0.00716
G1 X160.516 Y135.425 E0.00781
G1 X160.727 Y135.531 E0.00738
G1 X160.831 Y135.623 E0.00438
G1 X160.960 Y135.812 E0.00716
G1 X161.025 Y136.053 E0.00781
G1 X161.005 Y136.288 E0.00738
G1 X160.958 Y136.420 E0.00439
G1 X160.827 Y136.614 E0.00736
G1 X160.631 Y136.759 E0.00764
G1 X160.398 Y136.830 E0.00764
G1 X160.154 Y136.820 E0.00764
G1 X159.936 Y136.732 E0.00736
G1 X159.824 Y136.649 E0.00438
G1 X159.680 Y136.472 E0.00716
G1 X159.619 Y136.303 E0.00565
G1 X159.464 Y136.205 F7200.000
G1 F5760
G1 X159.587 Y136.106 E-0.06893
G1 F5760
G1 X159.624 Y135.881 E-0.07911
G1 F5760
G1 X159.744 Y135.663 E-0.08633
G1 F5760
G1 X159.921 Y135.507 E-0.08154
G1 F5760
G1 X160.046 Y135.444 E-0.04837
G1 F5760
G1 X160.269 Y135.395 E-0.07911
G1 F5760
G1 X160.516 Y135.425 E-0.08632
G1 F5760
G1 X160.727 Y135.531 E-0.08155
G1 F5760
G1 X160.831 Y135.623 E-0.04837
G1 F5760
G1 X160.960 Y135.812 E-0.07911
G1 F5760
G1 X160.976 Y135.872 E-0.02126
G1 E-0.04000 F2100.00000
G1 X161.803 Y135.756 F7200.000
G1 E0.80000 F2100.00000
G1 F840
G1 X161.986 Y135.423 E0.01189
G1 X162.248 Y135.192 E0.01097
G1 X162.459 Y135.086 E0.00739
G1 X162.791 Y135.013 E0.01066
G1 X163.167 Y135.059 E0.01189
G1 X163.480 Y135.216 E0.01097
G1 X163.656 Y135.372 E0.00739
G1 X163.848 Y135.653 E0.01066
G1 X163.946 Y136.019 E0.01189
G1 X163.916 Y136.368 E0.01097
G1 X163.837 Y136.591 E0.00742
G1 X163.643 Y136.879 E0.01090
G1 X163.343 Y137.100 E0.01170
G1 X162.986 Y137.210 E0.01170
G1 X162.613 Y137.194 E0.01170
G1 X162.291 Y137.064 E0.01090
G1 X162.102 Y136.924 E0.00739
G1 X161.887 Y136.660 E0.01066
G1 X161.767 Y136.328 E0.01109
G1 X161.747 Y136.091 E0.00746
G1 X161.793 Y135.815 E0.00878
G1 X162.127 Y136.106 F7200.000
G1 F840
G1 X162.164 Y135.881 E0.00716
G1 X162.284 Y135.663 E0.00781
G1 X162.461 Y135.507 E0.00738
G1 X162.586 Y135.444 E0.00438
G1 X162.809 Y135.395 E0.00716
G1 X163.056 Y135.425 E0.00781
G1 X163.267 Y135.531 E0.00738
G1 X163.371 Y135.623 E0.00438
G1 X163.500 Y135.812 E0.00716
G1 X163.565 Y136.053 E0.00781
G1 X163.545 Y136.288 E0.00738
G1 X163.498 Y136.420 E0.00439
G1 X163.367 Y136.614 E0.00736
G1 X163.171 Y136.759 E0.00764
G1 X162.938 Y136.830 E0.00764
G1 X162.694 Y136.820 E0.00764
G1 X162.476 Y136.732 E0.00736
G1 X162.364 Y136.649 E0.00438
G1 X162.220 Y136.472 E0.00716
G1 X162.138 Y136.246 E0.00753
G1 X162.132 Y136.166 E0.00252
G1 X161.932 Y135.987 F7200.000
G1 F5760
G1 X162.164 Y135.881 E-0.09937
G1 F5760
G1 X162.284 Y135.663 E-0.08633
G1 F5760
G1 X162.461 Y135.507 E-0.08154
G1 F5760
G1 X162.586 Y135.444 E-0.04837
G1 F5760
G1 X162.809 Y135.395 E-0.07911
G1 F5760
G1 X163.056 Y135.425 E-0.08633
G1 F5760
G1 X163.267 Y135.531 E-0.08155
G1 F5760
G1 X163.371 Y135.623 E-0.04837
G1 F5760
G1 X163.500 Y135.812 E-0.07911
G1 F5760
G1 X163.552 Y136.007 E-0.06993
G1 E-0.04000 F2100.00000
G1 X164.343 Y135.756 F7200.000
G1 E0.80000 F2100.00000
G1 F840
G1 X164.526 Y135.423 E0.01189
G1 X164.788 Y135.192 E0.01097
G1 X164.999 Y135.086 E0.00739
G1 X165.331 Y135.013 E0.01066
G1 X165.707 Y135.059 E0.01189
G1 X166.020 Y135.216 E0.01097
G1 X166.196 Y135.372 E0.00739
G1 X166.388 Y135.653 E0.01066
G1 X166.486 Y136.018 E0.01186
G1 X166.458 Y136.359 E0.01071
G1 X166.379 Y136.588 E0.00761
G1 X166.183 Y136.879 E0.01099
G1 X165.883 Y137.100 E0.01170
G1 X165.526 Y137.210 E0.01170
G1 X165.153 Y137.194 E0.01170
G1 X164.831 Y137.064 E0.01090
G1 X164.642 Y136.924 E0.00739
G1 X164.427 Y136.660 E0.01066
G1 X164.307 Y136.328 E0.01109
G1 X164.287 Y136.091 E0.00746
G1 X164.333 Y135.815 E0.00877
G1 X164.667 Y136.106 F7200.000
G1 F840
G1 X164.704 Y135.881 E0.00716
G1 X164.824 Y135.663 E0.00782
G1 X165.001 Y135.507 E0.00738
G1 X165.126 Y135.444 E0.00438
G1 X165.349 Y135.395 E0.00716
G1 X165.596 Y135.425 E0.00781
G1 X165.807 Y135.531 E0.00738
G1 X165.911 Y135.623 E0.00438
G1 X166.040 Y135.812 E0.00716
G1 X166.104 Y136.053 E0.00781
G1 X166.086 Y136.281 E0.00718
G1 X166.039 Y136.419 E0.00456
G1 X165.907 Y136.614 E0.00739
G1 X165.711 Y136.759 E0.00764
G1 X165.478 Y136.830 E0.00764
G1 X165.234 Y136.820 E0.00764
G1 X165.016 Y136.732 E0.00736
G1 X164.904 Y136.649 E0.00438
G1 X164.760 Y136.472 E0.00716
G1 X164.678 Y136.246 E0.00753
G1 X164.672 Y136.166 E0.00252
G1 X164.472 Y135.987 F7200.000
G1 F5760
G1 X164.704 Y135.881 E-0.09937
G1 F5760
G1 X164.824 Y135.663 E-0.08633
G1 F5760
G1 X165.001 Y135.507 E-0.08154
G1 F5760
G1 X165.126 Y135.444 E-0.04837
G1 F5760
G1 X165.349 Y135.395 E-0.07911
G1 F5760
G1 X165.596 Y135.425 E-0.08633
G1 F5760
G1 X165.807 Y135.531 E-0.08155
G1 F5760
G1 X165.911 Y135.623 E-0.04837
G1 F5760
G1 X166.040 Y135.812 E-0.07911
G1 F5760
G1 X166.092 Y136.007 E-0.06993
G1 E-0.04000 F2100.00000
G1 X166.883 Y135.756 F7200.000
G1 E0.80000 F2100.00000
G1 F840
G1 X167.066 Y135.423 E0.01189
G1 X167.328 Y135.192 E0.01097
G1 X167.539 Y135.086 E0.00739
G1 X167.871 Y135.013 E0.01066
G1 X168.247 Y135.059 E0.01189
G1 X168.560 Y135.216 E0.01097
G1 X168.736 Y135.372 E0.00739
G1 X168.928 Y135.653 E0.01066
G1 X169.026 Y136.018 E0.01186
G1 X168.998 Y136.359 E0.01071
G1 X168.919 Y136.588 E0.00761
G1 X168.723 Y136.879 E0.01099
G1 X168.423 Y137.100 E0.01170
G1 X168.066 Y137.210 E0.01170
G1 X167.693 Y137.194 E0.01170
G1 X167.371 Y137.064 E0.01090
G1 X167.182 Y136.924 E0.00739
G1 X166.967 Y136.660 E0.01066
G1 X166.847 Y136.328 E0.01109
G1 X166.827 Y136.091 E0.00746
G1 X166.873 Y135.815 E0.00877
G1 X167.207 Y136.106 F7200.000
G1 F840
G1 X167.244 Y135.881 E0.00716
G1 X167.364 Y135.663 E0.00782
G1 X167.541 Y135.507 E0.00738
G1 X167.666 Y135.444 E0.00438
G1 X167.889 Y135.395 E0.00716
G1 X168.136 Y135.425 E0.00781
G1 X168.347 Y135.531 E0.00738
G1 X168.451 Y135.623 E0.00438
G1 X168.580 Y135.812 E0.00716
G1 X168.644 Y136.053 E0.00781
G1 X168.626 Y136.281 E0.00718
G1 X168.579 Y136.419 E0.00456
G1 X168.447 Y136.614 E0.00739
G1 X168.251 Y136.759 E0.00764
G1 X168.018 Y136.830 E0.00764
G1 X167.774 Y136.820 E0.00764
G1 X167.556 Y136.732 E0.00736
G1 X167.444 Y136.649 E0.00438
G1 X167.300 Y136.472 E0.00716
G1 X167.218 Y136.246 E0.00753
G1 X167.212 Y136.166 E0.00252
G1 X167.012 Y135.987 F7200.000
G1 F5760
G1 X167.244 Y135.881 E-0.09937
G1 F5760
G1 X167.364 Y135.663 E-0.08633
G1 F5760
G1 X167.541 Y135.507 E-0.08154
G1 F5760
G1 X167.666 Y135.444 E-0.04837
G1 F5760
G1 X167.889 Y135.395 E-0.07911
G1 F5760
G1 X168.136 Y135.425 E-0.08633
G1 F5760
G1 X168.347 Y135.531 E-0.08154
G1 F5760
G1 X168.451 Y135.623 E-0.04837
G1 F5760
G1 X168.580 Y135.812 E-0.07911
G1 F5760
G1 X168.632 Y136.007 E-0.06993
G1 E-0.04000 F2100.00000
G1 X167.693 Y134.654 F7200.000
G1 E0.80000 F2100.00000
G1 F840
G1 X167.371 Y134.524 E0.01090
G1 X167.182 Y134.384 E0.00739
G1 X166.967 Y134.120 E0.01066
G1 X166.847 Y133.788 E0.01109
G1 X166.827 Y133.551 E0.00746
G1 X166.883 Y133.216 E0.01066
G1 X167.066 Y132.883 E0.01189
G1 X167.328 Y132.652 E0.01097
G1 X167.539 Y132.546 E0.00739
G1 X167.871 Y132.473 E0.01066
G1 X168.247 Y132.519 E0.01189
G1 X168.560 Y132.676 E0.01097
G1 X168.736 Y132.832 E0.00739
G1 X168.928 Y133.113 E0.01066
G1 X169.026 Y133.478 E0.01186
G1 X168.998 Y133.819 E0.01071
G1 X168.919 Y134.048 E0.00761
G1 X168.723 Y134.339 E0.01099
G1 X168.423 Y134.560 E0.01170
G1 X168.066 Y134.670 E0.01170
G1 X167.753 Y134.656 E0.00982
G1 X167.556 Y134.192 F7200.000
G1 F840
G1 X167.444 Y134.109 E0.00438
G1 X167.300 Y133.932 E0.00716
G1 X167.218 Y133.706 E0.00753
G1 X167.207 Y133.566 E0.00440
G1 X167.244 Y133.341 E0.00716
G1 X167.364 Y133.123 E0.00782
G1 X167.541 Y132.967 E0.00738
G1 X167.666 Y132.904 E0.00438
G1 X167.889 Y132.855 E0.00716
G1 X168.136 Y132.885 E0.00781
G1 X168.347 Y132.991 E0.00738
G1 X168.451 Y133.083 E0.00438
G1 X168.580 Y133.272 E0.00716
G1 X168.644 Y133.513 E0.00781
G1 X168.626 Y133.741 E0.00718
G1 X168.579 Y133.879 E0.00456
G1 X168.447 Y134.074 E0.00739
G1 X168.251 Y134.219 E0.00764
G1 X168.018 Y134.290 E0.00764
G1 X167.774 Y134.280 E0.00764
G1 X167.612 Y134.215 E0.00547
G1 X167.438 Y134.266 F7200.000
G1 F5760
G1 X167.444 Y134.109 E-0.06868
G1 F5760
G1 X167.300 Y133.932 E-0.07911
G1 F5760
G1 X167.218 Y133.706 E-0.08317
G1 F5760
G1 X167.207 Y133.566 E-0.04865
G1 F5760
G1 X167.244 Y133.341 E-0.07911
G1 F5760
G1 X167.364 Y133.123 E-0.08633
G1 F5760
G1 X167.541 Y132.967 E-0.08154
G1 F5760
G1 X167.666 Y132.904 E-0.04837
G1 F5760
G1 X167.889 Y132.855 E-0.07911
G1 F5760
G1 X168.136 Y132.885 E-0.08633
G1 F5760
G1 X168.187 Y132.911 E-0.01961
G1 E-0.04000 F2100.00000
G1 X167.701 Y132.114 F7200.000
G1 E0.80000 F2100.00000
G1 F840
G1 X167.371 Y131.984 E0.01113
G1 X167.181 Y131.844 E0.00742
G1 X166.963 Y131.573 E0.01090
G1 X166.847 Y131.246 E0.01090
G1 X166.827 Y131.011 E0.00739
G1 X166.883 Y130.676 E0.01066
G1 X167.066 Y130.343 E0.01189
G1 X167.328 Y130.112 E0.01097
G1 X167.539 Y130.006 E0.00739
G1 X167.871 Y129.933 E0.01066
G1 X168.247 Y129.979 E0.01189
G1 X168.560 Y130.136 E0.01097
G1 X168.736 Y130.292 E0.00739
G1 X168.928 Y130.573 E0.01066
G1 X169.026 Y130.938 E0.01186
G1 X168.998 Y131.279 E0.01071
G1 X168.919 Y131.508 E0.00761
G1 X168.723 Y131.799 E0.01099
G1 X168.423 Y132.020 E0.01170
G1 X168.066 Y132.130 E0.01170
G1 X167.761 Y132.117 E0.00957
G1 X167.556 Y131.652 F7200.000
G1 F840
G1 X167.444 Y131.569 E0.00439
G1 X167.297 Y131.387 E0.00736
G1 X167.218 Y131.165 E0.00736
G1 X167.207 Y131.026 E0.00438
G1 X167.244 Y130.801 E0.00716
G1 X167.364 Y130.583 E0.00782
G1 X167.541 Y130.427 E0.00738
G1 X167.666 Y130.364 E0.00438
G1 X167.889 Y130.315 E0.00716
G1 X168.136 Y130.345 E0.00781
G1 X168.347 Y130.451 E0.00738
G1 X168.451 Y130.543 E0.00438
G1 X168.580 Y130.732 E0.00716
G1 X168.644 Y130.973 E0.00781
G1 X168.626 Y131.201 E0.00718
G1 X168.579 Y131.339 E0.00456
G1 X168.447 Y131.534 E0.00739
G1 X168.251 Y131.679 E0.00764
G1 X168.018 Y131.750 E0.00764
G1 X167.774 Y131.740 E0.00764
G1 X167.612 Y131.675 E0.00547
G1 X167.437 Y131.726 F7200.000
G1 F5760
G1 X167.444 Y131.569 E-0.06878
G1 F5760
G1 X167.297 Y131.387 E-0.08126
G1 F5760
G1 X167.218 Y131.165 E-0.08126
G1 F5760
G1 X167.207 Y131.026 E-0.04837
G1 F5760
G1 X167.244 Y130.801 E-0.07911
G1 F5760
G1 X167.364 Y130.583 E-0.08633
G1 F5760
G1 X167.541 Y130.427 E-0.08154
G1 F5760
G1 X167.666 Y130.364 E-0.04837
G1 F5760
G1 X167.889 Y130.315 E-0.07911
G1 F5760
G1 X168.136 Y130.345 E-0.08633
G1 F5760
G1 X168.187 Y130.371 E-0.01955
G1 E-0.04000 F2100.00000
G1 X168.066 Y129.590 F7200.000
G1 E0.80000 F2100.00000
G1 F840
